X: 241
T: Kitchen Girl
B: canberra pickers and fiddlers
B: tunes
M:4/4
L:1/8
R: reel
Q: 1/4=170
K:Amixolydian
V:1 
%
|:"A"L[a2c2]z2"G"L[g2B2]z2|"A"efed cAcd|edef gaba|"E"g2e2e4|
"A"L[a2c2]z2"G"L[g2B2]z2|"A"efed cAcd|"G"efgd "E"efed|"A"c2A2A4 :|
|:"A"ABcA "G"BAG2|"A"ABAGE2(A2|A3)Bc2d2|"E"e4e2A2 |
"A"ABcA "G"BAG2|"A"ABAGE2AB|1"_Usual End""A"cBAc "G"BAGB|"A"A4A4:|2"_Short End""A".c2z2 "G".B2z2|"A"A8|]
% abcbook-tune_id 63ae8f1c86a7c298d92880bc
% abcbook-tune_composer_id 
% abcbook-link-0 https://www.youtube.com/watch?v=PYGXRz1U4JM
% abcbook-link-title-0 Kitchen Girl
% abcbook-link-start-at-0 21
% abcbook-link-end-at-0 90
% abcbook-boost 0
% abcbook-difficulty 0
% abcbook-tags canberra pickers and fiddlers,old time tunes,steve ryan,© free
% abcbook-tablature 
% abcbook-transpose 
% abcbook-tuning GDAE
% abcbook-lastupdated 1677372311871
% abcbook-src-url https://tunebook.net/scrape/tunes.abc
% abcbook-soundfonts 
% abcbook-repeats 1


